X:148
T: Schreinerlied (2-50) S. 160
N: P0923
O: Lothringen
S: PINCK, Louis: Verklingende Weisen, Bd 2, Metz 1928]
R: Arbeits-, Berufslied]
M: 4/4
L: 1/8
K: G
D2 | G2GGGB2B | A2G2F2
D2 | G2G2GABG | A4z2
Bc | d3eABcd | B3AG2
GG | A2c2FGAB | G4z2

@@@ Tune index: 7698
